!!!OTL: Qiongren xiaodiao
!!!ARE: Asia, China,ÿHenan, Xinxian
!! IV, 137
!!!SCT: C1652
!!!YEM: Copyright 1995, estate of Helmut Schaffrath.
**kern
*ICvox
*Ivox
!! Mixed meters:  2/4; 3/4
*M2/4
*k[b-]
*F:
{8dd
8dd
8a
8a
=1
8dd
4a
8dd
=2
4cc
4r}
=3
{8dd
8dd
8a
8a
=4
8dd
4a
8dd
=5
4cc
4r}
=6
{8dd
8ee
4dd
=7
8dd
8ee
4dd
=8
8.a
16cc
8dd
8ee
=9
8dd
4dd
8cc}
=10
*M3/4
{8a
8a
4g
8r
8g
=11
*M2/4
8a
8a
8cc
8g
=12
8a
4cc
16a
16g
=13
4.f
8r}
=14
{4.dd
8cc
=15
8a
8g
8r
8g
=16
8a
8a
8cc
8g
=17
8a
4cc
16a
16g
=18
4.f
8r}
=19
{8dd
16dd
16cc
8a
16g
16a
=20
8cc
8cc
8b-
8dd
=21
4.cc
8r}
=22
{8dd
16dd
16cc
8a
16g
16a
=23
8cc
8cc
8b-
8dd
=24
4.cc
8r}
=25
{8.dd
16gg
4ff
=26
8.dd
16gg
4ff
=27
8.a
16cc
8dd
8ee
=28
8dd
4dd
8cc}
=29
*M3/4
{8a
8a
4g
8r
8g
=30
*M2/4
8a
8a
8cc
8g
=31
8a
4cc
16a
16g
=32
4.f
8r}
=33
{4.dd
8cc
=34
8a
8g
8r
8g
=35
8a
8a
8cc
8g
=36
8a
4cc
16a
16g
=37
2f}
=38
{8dd
8dd
8a
8a
=39
8dd
4a
8dd
=40
4cc
4r}
=41
{8dd
8dd
8a
8a
=42
8dd
4a
8dd
=43
4cc
4r}
=44
{8.dd
16gg
4ff
=45
8.dd
16gg
4ff
=46
8.a
16cc
8dd
8ee
=47
8dd
4dd
8cc}
=48
{8a
8a
4g
=49
8a
8a
8cc
8g
=50
8a
4cc
16a
16g
=51
4.f
8r}
=52
{4.dd
8cc
=53
8a
8g
8r
8g
=54
8a
8a
8cc
8g
=55
8a
4cc
16a
16g
=56
2f}
==
!!!AGN: Xiaodiao. Suku
!!!AMT: irregular
!!!AIN: vox
!!!EED: Helmut Schaffrath
!!!EEV: 1.0
*-
